X: 1653
T: the Honeysuckle
%S: s:3 b:14(4+5+5)
R: hornpipe, reel
B: O'Neill's 1850 #1653
O: Carey
M: C|
L: 1/8
K: D
(3(ABc) |: d2cA (3(Bcd) AF | DFAF GBAG |[1,3 FAdA FAdf | edcB ABce :|
|[2,4 FAdB AGFE | D2DD D2 :: (3(ABc) | d2(de) fdec | defg a2(af) | geeg fddf |
| edcB ABce || d2cA (3(Bcd) AF | DFAF GBAG | FAdB AGFE | D2DD D2 :|
